packages/icons/src/circle-star.svg

<svg width="24" height="24" viewBox="0 0 24 24" fill="none" xmlns="http://www.w3.org/2000/svg">
<path d="M12 14.95L14.775 17.05C14.975 17.1833 15.175 17.1875 15.375 17.0625C15.575 16.9375 15.6333 16.7583 15.55 16.525L14.5 13.05L17.225 11.1C17.425 10.95 17.4833 10.7625 17.4 10.5375C17.3167 10.3125 17.1583 10.2 16.925 10.2H13.6L12.475 6.55C12.3917 6.31667 12.2333 6.2 12 6.2C11.7667 6.2 11.6083 6.31667 11.525 6.55L10.4 10.2H7.075C6.84167 10.2 6.68333 10.3125 6.6 10.5375C6.51667 10.7625 6.575 10.95 6.775 11.1L9.5 13.05L8.45 16.525C8.36667 16.7583 8.425 16.9375 8.625 17.0625C8.825 17.1875 9.025 17.1833 9.225 17.05L12 14.95ZM12 22C10.6167 22 9.31667 21.7375 8.1 21.2125C6.88333 20.6875 5.825 19.975 4.925 19.075C4.025 18.175 3.3125 17.1167 2.7875 15.9C2.2625 14.6833 2 13.3833 2 12C2 10.6167 2.2625 9.31667 2.7875 8.1C3.3125 6.88333 4.025 5.825 4.925 4.925C5.825 4.025 6.88333 3.3125 8.1 2.7875C9.31667 2.2625 10.6167 2 12 2C13.3833 2 14.6833 2.2625 15.9 2.7875C17.1167 3.3125 18.175 4.025 19.075 4.925C19.975 5.825 20.6875 6.88333 21.2125 8.1C21.7375 9.31667 22 10.6167 22 12C22 13.3833 21.7375 14.6833 21.2125 15.9C20.6875 17.1167 19.975 18.175 19.075 19.075C18.175 19.975 17.1167 20.6875 15.9 21.2125C14.6833 21.7375 13.3833 22 12 22ZM12 20C14.2167 20 16.1042 19.2208 17.6625 17.6625C19.2208 16.1042 20 14.2167 20 12C20 9.78333 19.2208 7.89583 17.6625 6.3375C16.1042 4.77917 14.2167 4 12 4C9.78333 4 7.89583 4.77917 6.3375 6.3375C4.77917 7.89583 4 9.78333 4 12C4 14.2167 4.77917 16.1042 6.3375 17.6625C7.89583 19.2208 9.78333 20 12 20Z" fill="black"/>
</svg>

<svg xmlns="http://www.w3.org/2000/svg" width="24" height="24" fill="none" viewBox="0 0 24 24">
  <path fill="#000" d="m12 14.95 2.775 2.1c.2.133.4.137.6.012.2-.125.258-.304.175-.537L14.5 13.05l2.725-1.95c.2-.15.258-.338.175-.563-.083-.225-.242-.337-.475-.337H13.6l-1.125-3.65c-.083-.233-.242-.35-.475-.35-.233 0-.392.117-.475.35L10.4 10.2H7.075c-.233 0-.392.113-.475.338-.083.224-.025.412.175.562L9.5 13.05l-1.05 3.475c-.083.233-.025.413.175.538.2.125.4.12.6-.013L12 14.95ZM12 22a9.738 9.738 0 0 1-3.9-.788 10.099 10.099 0 0 1-3.175-2.137c-.9-.9-1.612-1.958-2.137-3.175A9.738 9.738 0 0 1 2 12a9.74 9.74 0 0 1 .788-3.9 10.099 10.099 0 0 1 2.137-3.175c.9-.9 1.958-1.612 3.175-2.137A9.738 9.738 0 0 1 12 2a9.74 9.74 0 0 1 3.9.788 10.098 10.098 0 0 1 3.175 2.137c.9.9 1.613 1.958 2.137 3.175A9.738 9.738 0 0 1 22 12a9.738 9.738 0 0 1-.788 3.9 10.098 10.098 0 0 1-2.137 3.175c-.9.9-1.958 1.613-3.175 2.137A9.738 9.738 0 0 1 12 22Zm0-2c2.217 0 4.104-.78 5.663-2.337C19.22 16.104 20 14.217 20 12s-.78-4.104-2.337-5.662C16.104 4.779 14.217 4 12 4s-4.104.78-5.662 2.338C4.779 7.896 4 9.783 4 12s.78 4.104 2.338 5.663C7.896 19.22 9.783 20 12 20Z"/>
</svg>
